X: 1344
T: Claude Road Schottische
B: australian traditional tunes wiki
M:4/4
L:1/8
R: Schottische
Q: 1/4=100
K:A
V:1 
e>e||"A"e>c' b>a "E7"g>b a>e|"A"(3efe c>de2e>e|"E7"(3ded B>c d>e g>f|"A"(3efe c>d "E7"e2e>c|
"A"e>c' b>a "E7"g>b a>e|"A"(3efe c>de2e>e|"E7"(3ded B>c d>e g>f|"E"e>d c>B "A"A2A2||
|"A"c>B c>e "D"f2f>f|"A"e>c A>G"D"F2F>F|"E7"B>G B>d"E"e2eB/c/|"D"B>A G>F"E7"E2E>C|
"A"E>E F>GA2AB/c/|"E7"B>A G>F E>D C>B,|"A"A,>C E>A "E7"d>B G>E|"A"A>A "E7"(3cce "A"a2||
% abcbook-tune_id 6342d53a7bdad42f1fac4997


% abcbook-boost 0
% abcbook-tablature 
% abcbook-transpose 
% abcbook-lastupdated 1665324360306
% abcbook-soundfonts 
% abcbook-repeats 1
% NFF Book 2014

